fusion/fusion_logo_color_darkbg.svg

<svg width="1401" height="500" viewBox="0 0 1401 500" fill="none" xmlns="http://www.w3.org/2000/svg">
<mask id="mask0_416_579" style="mask-type:luminance" maskUnits="userSpaceOnUse" x="125" y="125" width="250" height="250">
<path d="M375 125H125V375H375V125Z" fill="white"/>
</mask>
<g mask="url(#mask0_416_579)">
<path d="M244.6 328.9C205.1 326.3 173.5 294.6 171.1 255.1H125C127.6 320.1 179.7 372.3 244.6 375V328.9Z" fill="white"/>
<path d="M171.1 244.6C173.7 205.2 205.4 173.5 244.9 171.1V125C179.9 127.6 127.7 179.7 125 244.6H171.1Z" fill="white"/>
<path d="M328.9 255.4C326.3 294.8 294.6 326.5 255.1 328.9V375C320.1 372.4 372.3 320.3 375 255.4H328.9Z" fill="white"/>
<path d="M255.4 171.1C294.9 173.7 326.5 205.4 328.9 244.9H375C372.4 179.9 320.3 127.7 255.4 125V171.1Z" fill="white"/>
</g>
<path d="M618.4 329.099C607 329.099 596.9 326.599 588 321.499C579.1 316.399 572.1 309.199 567 299.899C561.9 290.599 559.4 279.399 559.4 266.499V170.699H590.7V264.299C590.7 277.299 593.9 286.899 600.4 292.999C606.9 299.199 615.9 302.299 627.5 302.299C640.3 302.299 650.6 297.999 658.4 289.399C666.2 280.799 670.1 266.899 670.1 250.599V170.699H701.4V329.099H670.7V303.899H665.8C663 309.999 657.9 315.699 650.6 321.099C643.4 326.399 632.6 329.099 618.4 329.099Z" fill="white"/>
<path d="M887.3 329.099V170.699H918.6V329.099H887.3Z" fill="white"/>
<path d="M1026.2 329.099C1011.2 329.099 997.9 325.999 986.2 319.799C974.5 313.599 965.4 304.799 958.7 293.199C952 281.699 948.7 267.999 948.7 252.199V247.599C948.7 231.799 952 218.199 958.7 206.699C965.4 195.299 974.6 186.399 986.2 180.099C997.9 173.799 1011.2 170.699 1026.2 170.699C1041.2 170.699 1054.6 173.799 1066.3 180.099C1078.1 186.399 1087.3 195.199 1094 206.699C1100.7 218.099 1104 231.799 1104 247.599V252.199C1104 267.999 1100.7 281.699 1094 293.199C1087.3 304.799 1078.1 313.599 1066.3 319.799C1054.5 325.999 1041.2 329.099 1026.2 329.099ZM1026.2 301.099C1040 301.099 1051.2 296.699 1059.8 287.899C1068.4 279.099 1072.7 266.899 1072.7 251.299V248.599C1072.7 232.999 1068.4 220.799 1059.9 211.999C1051.4 203.199 1040.1 198.799 1026.2 198.799C1012.2 198.799 1001.5 203.199 992.9 211.999C984.3 220.799 980 232.999 980 248.599V251.299C980 266.899 984.3 279.099 992.9 287.899C1001.5 296.699 1012.6 301.099 1026.2 301.099Z" fill="white"/>
<path d="M1134 329.099V170.699H1164.7V195.599H1169.6C1172.4 189.499 1177.5 183.899 1184.8 178.599C1192.1 173.299 1202.9 170.699 1217.3 170.699C1228.7 170.699 1238.7 173.199 1247.6 178.299C1256.4 183.399 1263.4 190.499 1268.4 199.699C1273.5 208.899 1276 219.999 1276 232.999V329.099H1244.7V235.499C1244.7 222.499 1241.5 212.999 1235 206.799C1228.5 200.599 1219.6 197.499 1208.2 197.499C1195.2 197.499 1184.8 201.799 1177 210.299C1169.2 218.799 1165.3 232.999 1165.3 249.199V329.199H1134V329.099Z" fill="white"/>
<path d="M795.6 329.099H731.5V303.899H795.6C805.5 303.899 813.2 301.999 818.6 298.099C824 294.199 826.7 289.299 826.7 283.199C826.7 277.099 824.2 272.699 819.1 269.799C814 266.999 806.5 264.599 796.6 262.799L786.3 260.999C776.2 259.199 766.9 256.499 758.6 253.099C750.3 249.699 743.7 244.899 738.8 238.799C733.9 232.699 731.5 224.899 731.5 215.399C731.5 201.199 736.8 190.199 747.3 182.399C757.8 174.599 771.8 170.699 789.3 170.699H855V196.199H789.3C780.8 196.199 774.1 197.799 769.2 200.899C764.3 203.999 761.9 208.499 761.9 214.099C761.9 220.199 764.3 224.599 769 227.499C773.8 230.299 780.2 232.499 788.3 233.899L798.9 235.699C809.6 237.499 819.5 240.099 828.4 243.299C837.3 246.499 844.4 251.199 849.5 257.299C854.7 263.399 857.3 271.499 857.3 281.599C857.3 296.599 851.7 308.199 840.6 316.599C829.4 324.899 814.4 329.099 795.6 329.099Z" fill="white"/>
<path d="M461.2 133.2C455.8 138.7 453.1 146 453.1 155.2V329H484.5V197.3H529.4V170.7H507.7L490 188.4H484.5V160.3C484.5 154.2 487.4 151.2 493.4 151.2H529.3V125H483.3C474 125 466.6 127.8 461.2 133.2Z" fill="white"/>
</svg>

<?xml version="1.0" encoding="utf-8"?>
<!-- Generator: Adobe Illustrator 28.3.0, SVG Export Plug-In . SVG Version: 6.00 Build 0)  -->
<svg version="1.1" id="Layer_1" xmlns="http://www.w3.org/2000/svg" xmlns:xlink="http://www.w3.org/1999/xlink" x="0px" y="0px"
	 viewBox="0 0 1401 500" style="enable-background:new 0 0 1401 500;" xml:space="preserve">
<style type="text/css">
	.st0{clip-path:url(#SVGID_00000099624450914955671320000011237264746136131767_);}
	.st1{fill:#FA6863;}
	.st2{fill:#FFFFFF;}
</style>
<g>
	<defs>
		<rect id="SVGID_1_" x="125" y="125" width="250" height="250"/>
	</defs>
	<clipPath id="SVGID_00000133510543758888549080000002681985147570322058_">
		<use xlink:href="#SVGID_1_"  style="overflow:visible;"/>
	</clipPath>
	<g style="clip-path:url(#SVGID_00000133510543758888549080000002681985147570322058_);">
		<path class="st1" d="M244.6,328.9c-39.5-2.6-71.1-34.3-73.5-73.8H125c2.6,65,54.7,117.2,119.6,119.9V328.9z"/>
		<path class="st1" d="M171.1,244.6c2.6-39.4,34.3-71.1,73.8-73.5V125c-65,2.6-117.2,54.7-119.9,119.6H171.1z"/>
		<path class="st1" d="M328.9,255.4c-2.6,39.4-34.3,71.1-73.8,73.5V375c65-2.6,117.2-54.7,119.9-119.6H328.9z"/>
		<path class="st1" d="M255.4,171.1c39.5,2.6,71.1,34.3,73.5,73.8H375c-2.6-65-54.7-117.2-119.6-119.9V171.1z"/>
	</g>
</g>
<path class="st2" d="M618.4,329.1c-11.4,0-21.5-2.5-30.4-7.6c-8.9-5.1-15.9-12.3-21-21.6c-5.1-9.3-7.6-20.5-7.6-33.4v-95.8h31.3
	v93.6c0,13,3.2,22.6,9.7,28.7c6.5,6.2,15.5,9.3,27.1,9.3c12.8,0,23.1-4.3,30.9-12.9c7.8-8.6,11.7-22.5,11.7-38.8v-79.9h31.3v158.4
	h-30.7v-25.2h-4.9c-2.8,6.1-7.9,11.8-15.2,17.2C643.4,326.4,632.6,329.1,618.4,329.1L618.4,329.1z"/>
<path class="st2" d="M887.3,329.1V170.7h31.3v158.4L887.3,329.1L887.3,329.1z"/>
<path class="st2" d="M1026.2,329.1c-15,0-28.3-3.1-40-9.3c-11.7-6.2-20.8-15-27.5-26.6c-6.7-11.5-10-25.2-10-41v-4.6
	c0-15.8,3.3-29.4,10-40.9c6.7-11.4,15.9-20.3,27.5-26.6c11.7-6.3,25-9.4,40-9.4s28.4,3.1,40.1,9.4c11.8,6.3,21,15.1,27.7,26.6
	c6.7,11.4,10,25.1,10,40.9v4.6c0,15.8-3.3,29.5-10,41c-6.7,11.6-15.9,20.4-27.7,26.6C1054.5,326,1041.2,329.1,1026.2,329.1z
	 M1026.2,301.1c13.8,0,25-4.4,33.6-13.2c8.6-8.8,12.9-21,12.9-36.6v-2.7c0-15.6-4.3-27.8-12.8-36.6c-8.5-8.8-19.8-13.2-33.7-13.2
	c-14,0-24.7,4.4-33.3,13.2c-8.6,8.8-12.9,21-12.9,36.6v2.7c0,15.6,4.3,27.8,12.9,36.6C1001.5,296.7,1012.6,301.1,1026.2,301.1z"/>
<path class="st2" d="M1134,329.1V170.7h30.7v24.9h4.9c2.8-6.1,7.9-11.7,15.2-17c7.3-5.3,18.1-7.9,32.5-7.9c11.4,0,21.4,2.5,30.3,7.6
	c8.8,5.1,15.8,12.2,20.8,21.4c5.1,9.2,7.6,20.3,7.6,33.3v96.1h-31.3v-93.6c0-13-3.2-22.5-9.7-28.7c-6.5-6.2-15.4-9.3-26.8-9.3
	c-13,0-23.4,4.3-31.2,12.8c-7.8,8.5-11.7,22.7-11.7,38.9v80H1134z"/>
<path class="st2" d="M795.6,329.1h-64.1v-25.2h64.1c9.9,0,17.6-1.9,23-5.8c5.4-3.9,8.1-8.8,8.1-14.9s-2.5-10.5-7.6-13.4
	c-5.1-2.8-12.6-5.2-22.5-7l-10.3-1.8c-10.1-1.8-19.4-4.5-27.7-7.9c-8.3-3.4-14.9-8.2-19.8-14.3c-4.9-6.1-7.3-13.9-7.3-23.4
	c0-14.2,5.3-25.2,15.8-33c10.5-7.8,24.5-11.7,42-11.7h65.7v25.5h-65.7c-8.5,0-15.2,1.6-20.1,4.7c-4.9,3.1-7.3,7.6-7.3,13.2
	c0,6.1,2.4,10.5,7.1,13.4c4.8,2.8,11.2,5,19.3,6.4l10.6,1.8c10.7,1.8,20.6,4.4,29.5,7.6c8.9,3.2,16,7.9,21.1,14
	c5.2,6.1,7.8,14.2,7.8,24.3c0,15-5.6,26.6-16.7,35C829.4,324.9,814.4,329.1,795.6,329.1L795.6,329.1z"/>
<path class="st2" d="M461.2,133.2c-5.4,5.5-8.1,12.8-8.1,22v173.8h31.4V197.3h44.9v-26.6h-21.7l-17.7,17.7h-5.5v-28.1
	c0-6.1,2.9-9.1,8.9-9.1h35.9V125h-46C474,125,466.6,127.8,461.2,133.2z"/>
</svg>
